images/buildings/apartments-narrow-left.svg

<?xml version="1.0" standalone="no"?><!DOCTYPE svg PUBLIC "-//W3C//DTD SVG 1.1//EN" "http://www.w3.org/Graphics/SVG/1.1/DTD/svg11.dtd"><svg width="432px" height="624px" version="1.1" xmlns="http://www.w3.org/2000/svg" xmlns:xlink="http://www.w3.org/1999/xlink" xml:space="preserve" style="fill-rule:evenodd;clip-rule:evenodd;stroke-linejoin:round;stroke-miterlimit:1.41421;"><g><g id="apartments-narrow-left" transform="matrix(1,0,0,1,0,24)"><g transform="matrix(1,0,0,1,-1697.92,-320.875)"><path d="M2094.01,672.482l29.963,-1.171l-29.078,-86.005l-0.885,87.176Z" style="fill:#d8d3cb;fill-rule:nonzero;"/></g><g transform="matrix(1,0,0,1,-1697.92,-320.875)"><path d="M1697.95,584.919l-0.02,2.258l0,321.708l399.832,-0.023l-2.341,-323.964l-397.471,0.021Z" style="fill:#366387;fill-rule:nonzero;"/></g><g transform="matrix(1,0,0,1,-1697.92,-320.875)"><path d="M1797.67,864.434l243.898,0l-0.264,-229.955l-243.477,-0.024l-0.157,229.979Z" style="fill:#f6f1e1;fill-rule:nonzero;"/></g><g transform="matrix(1,0,0,1,-1697.92,-320.875)"><path d="M1804.48,857.187l116.26,0l-0.48,-218.048l-115.69,-0.314l-0.09,218.362Z" style="fill:#323156;fill-rule:nonzero;"/></g><g transform="matrix(1,0,0,1,-1697.92,-320.875)"><path d="M1924.43,857.187l110.363,0l0,-218.047l-110.363,-0.315l0,218.362Z" style="fill:#323156;fill-rule:nonzero;"/></g><g transform="matrix(1,0,0,1,-1697.92,-320.875)"><path d="M1773.33,584.915l-11.975,89.042l318.834,-0.05l-11.936,-89.008l-294.923,0.016Z" style="fill:#d8d3cb;fill-rule:nonzero;"/></g><g transform="matrix(1,0,0,1,-1697.92,-320.875)"><path d="M1697.94,584.963l397.48,0.121l-0.244,-240.168l-397.236,-0.358l0,240.405Z" style="fill:#366387;fill-rule:nonzero;"/></g><g transform="matrix(1,0,0,1,-1697.92,-320.875)"><path d="M1894.52,540.766l75.928,-0.016l0.051,-151.875l-76.081,0l0.102,151.891Z" style="fill:#f6f1e1;fill-rule:nonzero;"/></g><g transform="matrix(1,0,0,1,-1697.92,-320.875)"><path d="M1900.51,534.875l64.283,0l0,-66.734l-64.283,-0.057l0,66.791Z" style="fill:#323156;fill-rule:nonzero;"/></g><g transform="matrix(1,0,0,1,-1697.92,-320.875)"><path d="M1900.51,462.248l64.318,-0.057l-0.035,-67.082l-64.317,0.016l0.034,67.123Z" style="fill:#323156;fill-rule:nonzero;"/></g><g transform="matrix(1,0,0,1,-1697.92,-320.875)"><path d="M1764.87,468.385l82.991,0.066l0.033,-63.645l-83.096,-0.032l0.072,63.611Z" style="fill:#f6f1e1;fill-rule:nonzero;"/></g><g transform="matrix(1,0,0,1,-1697.92,-320.875)"><path d="M1770.8,462.418l71.05,0.133l0,-51.178l-71.05,-0.045l0,51.09Z" style="fill:#323156;fill-rule:nonzero;"/></g><g transform="matrix(1,0,0,1,-1697.92,-320.875)"><path d="M1964.84,540.541l75.927,0l0.086,-151.654l-76.113,-0.012l0.1,151.666Z" style="fill:#f6f1e1;fill-rule:nonzero;"/></g><g transform="matrix(1,0,0,1,-1697.92,-320.875)"><path d="M1970.75,534.875l64.284,0.042l0,-66.823l-64.284,-0.01l0,66.791Z" style="fill:#323156;fill-rule:nonzero;"/></g><g transform="matrix(1,0,0,1,-1697.92,-320.875)"><path d="M1970.75,462.246l64.321,-0.057l-0.037,-67.08l-64.317,0.032l0.033,67.105Z" style="fill:#323156;fill-rule:nonzero;"/></g><g transform="matrix(1,0,0,1,-1697.92,-320.875)"><rect x="1899.89" y="462.692" width="65.172" height="5.403" style="fill:#f6f1e1;fill-rule:nonzero;"/></g><g transform="matrix(1,0,0,1,-1697.92,-320.875)"><g opacity="0.300003"><path d="M1868.71,673.966l-64.182,63.97l0.041,-63.967l64.141,-0.003Z" style="fill:#0d1824;fill-rule:nonzero;"/></g></g><g transform="matrix(1,0,0,1,-1697.92,-320.875)"><g opacity="0.300003"><path d="M2034.86,857.188l-0.002,-166.184l-151.901,145.311l-12.806,20.877l164.709,-0.004Z" style="fill:#0d1824;fill-rule:nonzero;"/></g></g><g transform="matrix(1,0,0,1,-1697.92,-320.875)"><path d="M1870.09,857.173l164.673,-165.21l0.012,-9.107l-174.15,174.34l9.465,-0.023Z" style="fill:#494a72;fill-rule:nonzero;"/></g><g transform="matrix(1,0,0,1,-1697.92,-320.875)"><rect x="1916.97" y="673.943" width="7.436" height="186.316" style="fill:#f6f1e1;fill-rule:nonzero;"/></g><g transform="matrix(1,0,0,1,-1697.92,-320.875)"><g opacity="0.300003"><path d="M1964.84,463.961l-64.328,64.119l-0.03,-132.955l64.319,0l0.039,68.836Z" style="fill:#0d1824;fill-rule:nonzero;"/></g></g><g transform="matrix(1,0,0,1,-1697.92,-320.875)"><g opacity="0.300003"><path d="M2033.09,395.125l-62.328,62.123l-0.042,-62.123l62.37,0Z" style="fill:#0d1824;fill-rule:nonzero;"/></g></g><g transform="matrix(1,0,0,1,-1697.92,-320.875)"><g opacity="0.300003"><path d="M2035.01,534.922l0.024,-46.444l-48.483,46.438l48.459,0.006Z" style="fill:#0d1824;fill-rule:nonzero;"/></g></g><g transform="matrix(1,0,0,1,-1697.92,-320.875)"><path d="M1993.18,534.906l41.848,-42.059l0.023,-9.32l-51.276,51.349l9.405,0.03Z" style="fill:#494a72;fill-rule:nonzero;"/></g><g transform="matrix(1,0,0,1,-1697.92,-320.875)"><rect x="1897.68" y="462.244" width="68.914" height="5.844" style="fill:#f6f1e1;fill-rule:nonzero;"/></g><g transform="matrix(1,0,0,1,-1697.92,-320.875)"><path d="M2095.2,344.916l4.464,-9.479l-401.719,0.022l-0.026,9.394l397.281,0.063Z" style="fill:#d8d3cb;fill-rule:nonzero;"/></g><g transform="matrix(1,0,0,1,-1697.92,-320.875)"><path d="M2099.63,335.44l4.203,-13.48l-0.018,-11.397l-6.75,0l-0.001,11.397l-399.106,0.001l-0.024,13.499l401.696,-0.02Z" style="fill:#fff;fill-rule:nonzero;"/></g><g transform="matrix(1,0,0,1,-1697.92,-320.875)"><rect x="1697.93" y="908.859" width="399.848" height="12.016" style="fill:#352d27;fill-rule:nonzero;"/></g></g></g></svg>

<?xml version="1.0" encoding="UTF-8" standalone="no"?>
<!DOCTYPE svg PUBLIC "-//W3C//DTD SVG 1.1//EN" "http://www.w3.org/Graphics/SVG/1.1/DTD/svg11.dtd">
<svg width="100%" height="100%" viewBox="0 0 432 624" version="1.1" xmlns="http://www.w3.org/2000/svg" xmlns:xlink="http://www.w3.org/1999/xlink" xml:space="preserve" style="fill-rule:evenodd;clip-rule:evenodd;stroke-linejoin:round;stroke-miterlimit:1.41421;">
    <g id="apartments-narrow-left" transform="matrix(1,0,0,1,0,24)">
        <g transform="matrix(1,0,0,1,-1697.92,-320.875)">
            <path d="M2097.92,672.482L2126.92,671.311L2097.92,585.306L2097.92,672.482Z" style="fill:rgb(216,211,203);fill-rule:nonzero;"/>
        </g>
        <g transform="matrix(1,-8.65475e-19,-1.50659e-18,1.74691,-1697.92,-999.726)">
            <path d="M1697.92,584.875L1697.92,908.875L2097.92,908.862L2097.92,584.875L1697.92,584.875Z" style="fill:rgb(54,99,135);fill-rule:nonzero;"/>
        </g>
        <g transform="matrix(1,0,0,1,-1697.92,-320.875)">
            <path d="M1797.66,864.434L2041.56,864.434L2041.3,634.479L1797.82,634.455L1797.66,864.434Z" style="fill:rgb(246,241,225);fill-rule:nonzero;"/>
        </g>
        <g transform="matrix(1,0,0,1,-1697.92,-320.875)">
            <path d="M1804.48,857.187L1920.74,857.187L1920.26,639.139L1804.57,638.825L1804.48,857.187Z" style="fill:rgb(50,49,86);fill-rule:nonzero;"/>
        </g>
        <g transform="matrix(1,0,0,1,-1697.92,-320.875)">
            <path d="M1924.43,857.187L2034.79,857.187L2034.79,639.14L1924.43,638.825L1924.43,857.187Z" style="fill:rgb(50,49,86);fill-rule:nonzero;"/>
        </g>
        <g transform="matrix(1,0,0,1,-1697.92,-320.875)">
            <path d="M1773.33,584.875L1761.35,673.957L2080.19,673.907L2068.25,584.875L1773.33,584.875Z" style="fill:rgb(216,211,203);fill-rule:nonzero;"/>
        </g>
        <g transform="matrix(1,0,0,1,-1697.92,-320.875)">
            <path d="M1894.52,540.766L1970.45,540.75L1970.5,388.875L1894.42,388.875L1894.52,540.766Z" style="fill:rgb(246,241,225);fill-rule:nonzero;"/>
        </g>
        <g transform="matrix(1,0,0,1,-1697.92,-320.875)">
            <path d="M1900.51,534.875L1964.79,534.875L1964.79,468.141L1900.51,468.084L1900.51,534.875Z" style="fill:rgb(50,49,86);fill-rule:nonzero;"/>
        </g>
        <g transform="matrix(1,0,0,1,-1697.92,-320.875)">
            <path d="M1900.51,462.248L1964.83,462.191L1964.79,395.109L1900.48,395.125L1900.51,462.248Z" style="fill:rgb(50,49,86);fill-rule:nonzero;"/>
        </g>
        <g transform="matrix(1,0,0,1,-1697.92,-320.875)">
            <path d="M1764.87,468.385L1847.86,468.451L1847.89,404.806L1764.8,404.774L1764.87,468.385Z" style="fill:rgb(246,241,225);fill-rule:nonzero;"/>
        </g>
        <g transform="matrix(1,0,0,1,-1697.92,-320.875)">
            <path d="M1770.8,462.418L1841.85,462.551L1841.85,411.373L1770.8,411.328L1770.8,462.418Z" style="fill:rgb(50,49,86);fill-rule:nonzero;"/>
        </g>
        <g transform="matrix(1,0,0,1,-1697.92,-320.875)">
            <path d="M1964.84,540.541L2040.77,540.541L2040.86,388.887L1964.74,388.875L1964.84,540.541Z" style="fill:rgb(246,241,225);fill-rule:nonzero;"/>
        </g>
        <g transform="matrix(1,0,0,1,-1697.92,-320.875)">
            <path d="M1970.75,534.875L2035.03,534.917L2035.03,468.094L1970.75,468.084L1970.75,534.875Z" style="fill:rgb(50,49,86);fill-rule:nonzero;"/>
        </g>
        <g transform="matrix(1,0,0,1,-1697.92,-320.875)">
            <path d="M1970.75,462.246L2035.07,462.189L2035.03,395.109L1970.71,395.141L1970.75,462.246Z" style="fill:rgb(50,49,86);fill-rule:nonzero;"/>
        </g>
        <g transform="matrix(1,0,0,1,-1697.92,-320.875)">
            <rect x="1899.89" y="462.692" width="65.172" height="5.403" style="fill:rgb(246,241,225);fill-rule:nonzero;"/>
        </g>
        <g transform="matrix(1,0,0,1,-1697.92,-320.875)">
            <g opacity="0.300003">
                <path d="M1868.71,673.966L1804.53,737.936L1804.57,673.969L1868.71,673.966Z" style="fill:rgb(13,24,36);fill-rule:nonzero;"/>
            </g>
        </g>
        <g transform="matrix(1,0,0,1,-1697.92,-320.875)">
            <g opacity="0.300003">
                <path d="M2034.86,857.188L2034.86,691.004L1882.96,836.315L1870.15,857.192L2034.86,857.188Z" style="fill:rgb(13,24,36);fill-rule:nonzero;"/>
            </g>
        </g>
        <g transform="matrix(1,0,0,1,-1697.92,-320.875)">
            <path d="M1870.09,857.173L2034.76,691.963L2034.78,682.856L1860.62,857.196L1870.09,857.173Z" style="fill:rgb(73,74,114);fill-rule:nonzero;"/>
        </g>
        <g transform="matrix(1,0,0,1,-1697.92,-320.875)">
            <rect x="1916.97" y="673.943" width="7.436" height="186.316" style="fill:rgb(246,241,225);fill-rule:nonzero;"/>
        </g>
        <g transform="matrix(1,0,0,1,-1697.92,-320.875)">
            <g opacity="0.300003">
                <path d="M1964.84,463.961L1900.51,528.08L1900.48,395.125L1964.8,395.125L1964.84,463.961Z" style="fill:rgb(13,24,36);fill-rule:nonzero;"/>
            </g>
        </g>
        <g transform="matrix(1,0,0,1,-1697.92,-320.875)">
            <g opacity="0.300003">
                <path d="M2033.09,395.125L1970.76,457.248L1970.72,395.125L2033.09,395.125Z" style="fill:rgb(13,24,36);fill-rule:nonzero;"/>
            </g>
        </g>
        <g transform="matrix(1,0,0,1,-1697.92,-320.875)">
            <g opacity="0.300003">
                <path d="M2035.01,534.922L2035.03,488.478L1986.55,534.916L2035.01,534.922Z" style="fill:rgb(13,24,36);fill-rule:nonzero;"/>
            </g>
        </g>
        <g transform="matrix(1,0,0,1,-1697.92,-320.875)">
            <path d="M1993.18,534.906L2035.03,492.847L2035.05,483.527L1983.77,534.876L1993.18,534.906Z" style="fill:rgb(73,74,114);fill-rule:nonzero;"/>
        </g>
        <g transform="matrix(1,0,0,1,-1697.92,-320.875)">
            <rect x="1897.68" y="462.244" width="68.914" height="5.844" style="fill:rgb(246,241,225);fill-rule:nonzero;"/>
        </g>
        <g transform="matrix(1,0,0,1,-1697.92,-322.875)">
            <path d="M2097.92,344.875L2102.42,335.437L1697.94,335.459L1697.92,344.853L2097.92,344.875Z" style="fill:rgb(216,211,203);fill-rule:nonzero;"/>
        </g>
        <g transform="matrix(1,0,0,1,-1697.92,-322.875)">
            <path d="M2102.42,335.44L2106.62,321.96L2106.62,310.563L2099.92,310.563L2099.92,321.96L1697.96,321.961L1697.94,335.46L2102.42,335.44Z" style="fill:white;fill-rule:nonzero;"/>
        </g>
        <g transform="matrix(1,0,0,1,-1697.92,-320.875)">
            <path d="M1697.92,920.875L2097.92,920.875L2097.92,908.875L1697.92,908.875L1697.92,920.875Z" style="fill:rgb(53,45,39);fill-rule:nonzero;"/>
        </g>
    </g>
</svg>
